public/images/signature.svg

<svg xmlns="http://www.w3.org/2000/svg" viewBox="0 0 300 74"><path d="M117.22 0q2.43 1.85 1.12 5.47a1.71 1.68 84.3 0 1-.7.87q-2.13 1.34-5.09 1.88a.85.84-7.1 0 1-.99-.76l-.11-1.52a.77.77 0 0 0-.77-.72q-24.37.02-48.16 3.13-6.65.87-13.44 2.27c-9.22 1.89-13.44 2.52-19.46 4.76a.16.16 0 0 0 .07.31q2.85-.19 5.7.61c4.37 1.24 5.41 4.19 6.37 8.18a.23.23 0 0 0 .38.1l12.92-12.92a1.6 1.6 0 0 1 2.53.35l.39.71a2.71 2.7 51.6 0 1-.36 3.14L39.34 35.95a.25.25 0 0 0 .19.42q7.97-.03 10.81.31 4.29.52 2.43 5.27a.93.92 33 0 1-1.52.32l-1.22-1.22a.71.69-24.7 0 0-.56-.2l-15.2 1.1a3.55 3.55 0 0 0-2.24 1.03q-9.51 9.51-21.41 21.64-2.41 2.46-5.8 7.9a1.84 1.84 0 0 1-2.93.25l-.02-.03a3.45 3.44-51.4 0 1-.44-3.98q2.93-5.25 5.96-8.63 7.58-8.45 15.99-16.77a.28.28 0 0 0-.22-.48q-9.26.73-20.67 1.78-1.48.13-2.49-1.42v-3.25l28.64-3.03a2.54 2.52 23.8 0 0 1.23-.47c3.92-2.82 9.75-7.79 9.05-13.3a1.79 1.69 23.1 0 0-.39-.9c-4.06-4.88-17.05-.84-22.26.87-2.47.82-4.13 1.01-4.53-1.95-.77-5.74 16.39-11.33 21.97-13.04Q51.72 2.64 78.52 0z"/><rect width="12.9" height="4.4" x="-6.45" y="-2.2" rx="1.95" transform="rotate(-38.1 148.637 -318.232)"/><path d="M300 36.17v1.68q-1.68 3.27-5.93 5.21-15.82 7.24-32.09 12.21-2.85.87-6.23-.28c-5.32-1.81-5.35-7.63-2.48-11.66a.24.24 0 0 0-.3-.36L239.83 49a1.35 1.35 0 0 0-.79 1.23l-.03 3.72a.78.73 59.1 0 1-.07.32q-2.85 6.46-9.35 8.18-2.82.75-4.34-.6c-5.14-4.59 5.5-11.6 9.43-14.27a.46.44 60.8 0 0 .15-.56l-1.89-4.13a.12.12 0 0 0-.18-.04q-9.69 6.99-21.37 9.04-2.75.48-4.96-.46a3.49 3.42 75.4 0 1-.9-.54q-2.19-1.8-1.52-5.08a.41.41 0 0 0-.56-.46q-13.27 5.52-22.49 8.59c-3.3 1.1-7.09 2.27-10.54 1.14q-5.4-1.77-4.35-7.83c.18-.97.64-1.48.78-2.08a.33.33 0 0 0-.47-.38c-4.43 2.3-10 5.02-14.41 4.34a2.11 2.04-21.3 0 1-.95-.4q-3.89-2.96-1.75-8.1a.41.41 0 0 0-.56-.53q-8.75 4.12-18.16 10.08c-2.06 1.3-4.3.17-4.59-2.3a.44.44 0 0 0-.64-.34c-4.04 2.11-10.12 5.5-14.74 3.42q-3.92-1.76-3.1-6.62a.47.47 0 0 0-.65-.51q-10.1 4.36-13.38 5.82c-2.49 1.11-5.81 1.47-6.77-1.37-.49-1.46.3-2.77 1.18-3.93a.27.26 13.4 0 0-.26-.42c-3.95.71-9.22 2.74-10.14-3.36a.75.75 0 0 0-1.08-.56q-10.2 5.25-21.01 12.85-2.57 1.8-4.63.22a2.53 1.99-52.8 0 1-.06-3.19c3.47-4.67 9.47-9.77 20.15-20.14a2.53 2.53 0 0 1 3.63.1l.18.2a2.48 2.48 0 0 1-.28 3.5l-6 5.12a.29.29 0 0 0 .33.47c3.1-1.79 6.95-4.81 10.4-2.93a.62.59-88.8 0 1 .23.25l1.73 3.77a1.31 1.29 76.8 0 0 1.21.76q5.43-.13 9.79-1.77a5.01 4.82 14.7 0 0 1.25-.7c4.38-3.43 15.07-10.81 20.74-6.28q3.43 2.74 1.16 8.11a.88.87-78.1 0 1-.82.54c-2.52-.03-2.41-3.5-2.02-5.38a.73.73 0 0 0-.92-.84q-8.86 2.56-15.7 8.58a.19.19 0 0 0 .2.31q2.69-1.18 10.39-4.57c2.08-.91 4.83-.89 5.99 1.43.86 1.73-.48 4.88-.98 6.83a.73.73 0 0 0 .8.91q3.26-.44 5.79-1.49 10.16-4.21 14.43-7.36 3.28-2.43 9.88-9.99a2.38 2.37-47.8 0 1 3.41-.17l.18.16a2.34 2.34 0 0 1 .16 3.34l-6.45 6.98a.23.22-83.1 0 0 .27.35q5.4-3.11 9.37-4.84.94-.41 1.96-.19c5.04 1.09 2.49 6.99 1.16 9.82a.5.49 6.2 0 0 .56.69c7.04-1.57 14.98-4.1 21.05-8.37 3.58-2.52 14.14-8.46 15.92-.76q.31 1.32-.95 4.45a.63.63 0 0 1-.78.36c-1.82-.59-2.55-1.66-2.16-3.39q.1-.47.08-.62a.49.48 77.8 0 0-.63-.41q-8.8 2.89-14.05 10.62-1.11 1.63-1.25 3.41a1 1 0 0 0 1.1 1.07q2.71-.3 5.41-1.2 16.68-5.6 30.9-11.61a1.34 1.18 9.8 0 0 .34-.21l6.74-5.76a2.4 2.39 57.5 0 1 3.73.83l.23.51a2.34 2.34 0 0 1-.92 2.99q-5.83 3.48-9.5 10.18a.3.3 0 0 0 .3.44c7.97-1.15 16.99-4.04 23.66-8.9a1.17 1.13 74.7 0 0 .47-.85c.4-5.1 9.31-11.23 13.69-14.25 2.75-1.89 6.18-2.61 6.71 1.99a1.39 1.39 0 0 1-1.6 1.53q-.12-.02-.36-.09a1.6 1.6 0 0 0-1.28.18q-8.8 5.44-12.47 10.58-2.34 3.28-.17 7.14a.7.7 0 0 0 .92.28q8.92-4.4 18.22-6.43a2.99 2.94 18.1 0 0 1.23-.61q3.5-2.91 7.95-4.88c5.69-2.51 12.62-.57 8.96 7.14a.61.6-68.3 0 1-.73.32q-2.96-.95-2.12-3.96a.41.41 0 0 0-.52-.5q-7.03 2.36-12 7.81-2.28 2.5-3.4 6.16a.85.84-83.8 0 0 .87 1.09q3-.24 6.99-1.61Q281.9 43.82 300 36.17m-65.602 17.233a3.08.35-40.9 0 0-2.557 1.753 3.08.35-40.9 0 0-2.099 2.28 3.08.35-40.9 0 0 2.557-1.751 3.08.35-40.9 0 0 2.099-2.282"/></svg>

<?xml version="1.0" encoding="UTF-8" standalone="no"?>
<!DOCTYPE svg PUBLIC "-//W3C//DTD SVG 1.1//EN" "http://www.w3.org/Graphics/SVG/1.1/DTD/svg11.dtd">
<svg xmlns="http://www.w3.org/2000/svg" version="1.1" viewBox="0.00 0.00 300.00 74.00">
<path fill="none" stroke-width="1.00" stroke="#000000" vector-effect="non-scaling-stroke" d="
  M 117.22 0.00
  C 118.84 1.23 119.21 3.06 118.34 5.47
  C 118.21 5.83 117.96 6.14 117.64 6.34
  C 116.22 7.23 114.52 7.86 112.55 8.22
  C 112.06 8.31 111.60 7.95 111.56 7.46
  L 111.45 5.94
  C 111.42 5.53 111.09 5.22 110.68 5.22
  C 94.43 5.23 78.38 6.28 62.52 8.35
  C 58.09 8.93 53.61 9.69 49.08 10.62
  C 39.86 12.51 35.64 13.14 29.62 15.38
  C 29.55 15.41 29.50 15.49 29.52 15.56
  C 29.54 15.64 29.61 15.70 29.69 15.69
  C 31.59 15.56 33.49 15.77 35.39 16.30
  C 39.76 17.54 40.80 20.49 41.76 24.48
  C 41.80 24.65 42.02 24.70 42.14 24.58
  L 55.06 11.66
  C 55.81 10.91 57.07 11.08 57.59 12.01
  L 57.98 12.72
  C 58.55 13.74 58.40 15.00 57.62 15.86
  L 39.34 35.95
  C 39.19 36.11 39.31 36.37 39.53 36.37
  C 44.84 36.35 48.45 36.45 50.34 36.68
  C 53.20 37.03 54.01 38.78 52.77 41.95
  C 52.53 42.58 51.72 42.74 51.25 42.27
  L 50.03 41.05
  C 49.88 40.90 49.68 40.83 49.47 40.85
  L 34.27 41.95
  C 33.42 42.01 32.63 42.38 32.03 42.98
  C 25.69 49.32 18.55 56.53 10.62 64.62
  C 9.01 66.26 7.08 68.89 4.82 72.52
  C 4.17 73.56 2.70 73.68 1.89 72.77
  L 1.87 72.74
  C 0.89 71.65 0.71 70.05 1.43 68.76
  C 3.38 65.26 5.37 62.38 7.39 60.13
  C 12.44 54.50 17.77 48.91 23.38 43.36
  C 23.57 43.17 23.42 42.86 23.16 42.88
  C 16.99 43.37 10.10 43.96 2.49 44.66
  C 1.50 44.75 0.67 44.27 0.00 43.24
  L 0.00 39.99
  L 28.64 36.96
  C 29.09 36.91 29.51 36.75 29.87 36.49
  C 33.79 33.67 39.62 28.70 38.92 23.19
  C 38.88 22.86 38.75 22.55 38.53 22.29
  C 34.47 17.41 21.48 21.45 16.27 23.16
  C 13.80 23.98 12.14 24.17 11.74 21.21
  C 10.97 15.47 28.13 9.88 33.71 8.17
  C 45.72 4.48 60.65 1.76 78.52 0.00
  L 117.22 0.00
  Z"
/>
<rect fill="none" stroke-width="1.00" stroke="#000000" vector-effect="non-scaling-stroke" x="-6.45" y="-2.20" transform="translate(228.03,23.91) rotate(-38.1)" width="12.90" height="4.40" rx="1.95"/>
<path fill="none" stroke-width="1.00" stroke="#000000" vector-effect="non-scaling-stroke" d="
  M 300.00 36.17
  L 300.00 37.85
  C 298.88 40.03 296.90 41.77 294.07 43.06
  C 283.52 47.89 272.83 51.96 261.98 55.27
  C 260.08 55.85 258.00 55.76 255.75 54.99
  C 250.43 53.18 250.40 47.36 253.27 43.33
  C 253.41 43.13 253.20 42.87 252.97 42.97
  L 239.83 49.00
  C 239.35 49.22 239.04 49.70 239.04 50.23
  L 239.01 53.95
  C 239.01 54.06 238.99 54.17 238.94 54.27
  C 237.04 58.58 233.92 61.30 229.59 62.45
  C 227.71 62.95 226.26 62.75 225.25 61.85
  C 220.11 57.26 230.75 50.25 234.68 47.58
  C 234.86 47.46 234.92 47.22 234.83 47.02
  L 232.94 42.89
  C 232.91 42.82 232.82 42.80 232.76 42.85
  C 226.30 47.51 219.18 50.52 211.39 51.89
  C 209.56 52.21 207.90 52.06 206.43 51.43
  C 206.11 51.30 205.80 51.12 205.53 50.89
  C 204.07 49.69 203.56 48.00 204.01 45.81
  C 204.07 45.49 203.75 45.22 203.45 45.35
  C 194.60 49.03 187.11 51.89 180.96 53.94
  C 177.66 55.04 173.87 56.21 170.42 55.08
  C 166.82 53.90 165.37 51.29 166.07 47.25
  C 166.25 46.28 166.71 45.77 166.85 45.17
  C 166.92 44.89 166.63 44.66 166.38 44.79
  C 161.95 47.09 156.38 49.81 151.97 49.13
  C 151.62 49.08 151.30 48.94 151.02 48.73
  C 148.43 46.76 147.84 44.06 149.27 40.63
  C 149.42 40.28 149.05 39.94 148.71 40.10
  C 142.88 42.85 136.82 46.21 130.55 50.18
  C 128.49 51.48 126.25 50.35 125.96 47.88
  C 125.93 47.57 125.59 47.40 125.32 47.54
  C 121.28 49.65 115.20 53.04 110.58 50.96
  C 107.97 49.79 106.93 47.58 107.48 44.34
  C 107.54 43.97 107.17 43.68 106.83 43.83
  C 100.10 46.74 95.64 48.68 93.45 49.65
  C 90.96 50.76 87.64 51.12 86.68 48.28
  C 86.19 46.82 86.98 45.51 87.86 44.35
  C 88.01 44.16 87.84 43.89 87.60 43.93
  C 83.65 44.64 78.38 46.67 77.46 40.57
  C 77.39 40.06 76.84 39.78 76.38 40.01
  C 69.58 43.51 62.58 47.79 55.37 52.86
  C 53.66 54.06 52.11 54.13 50.74 53.08
  C 49.88 52.41 49.85 50.99 50.68 49.89
  C 54.15 45.22 60.15 40.12 70.83 29.75
  C 71.85 28.75 73.50 28.80 74.46 29.85
  L 74.64 30.05
  C 75.53 31.09 75.40 32.66 74.36 33.55
  L 68.36 38.67
  C 68.25 38.77 68.23 38.93 68.31 39.06
  C 68.40 39.18 68.56 39.21 68.69 39.14
  C 71.79 37.35 75.64 34.33 79.09 36.21
  C 79.19 36.27 79.27 36.36 79.32 36.46
  L 81.05 40.23
  C 81.27 40.70 81.74 41.00 82.26 40.99
  C 85.88 40.90 89.14 40.31 92.05 39.22
  C 92.50 39.05 92.92 38.81 93.30 38.52
  C 97.68 35.09 108.37 27.71 114.04 32.24
  C 116.33 34.07 116.71 36.77 115.20 40.35
  C 115.06 40.68 114.74 40.90 114.38 40.89
  C 111.86 40.86 111.97 37.39 112.36 35.51
  C 112.47 34.97 111.97 34.52 111.44 34.67
  C 105.53 36.38 100.30 39.24 95.74 43.25
  C 95.67 43.31 95.66 43.41 95.71 43.49
  C 95.76 43.57 95.86 43.60 95.94 43.56
  C 97.73 42.77 101.20 41.25 106.33 38.99
  C 108.41 38.08 111.16 38.10 112.32 40.42
  C 113.18 42.15 111.84 45.30 111.34 47.25
  C 111.21 47.75 111.63 48.23 112.14 48.16
  C 114.31 47.87 116.24 47.37 117.93 46.67
  C 124.70 43.86 129.51 41.41 132.36 39.31
  C 134.55 37.69 137.84 34.36 142.24 29.32
  C 143.13 28.31 144.67 28.23 145.65 29.15
  L 145.83 29.31
  C 146.81 30.18 146.88 31.69 145.99 32.65
  L 139.54 39.63
  C 139.46 39.71 139.46 39.84 139.53 39.92
  C 139.59 40.01 139.71 40.03 139.81 39.98
  C 143.41 37.91 146.53 36.29 149.18 35.14
  C 149.81 34.87 150.46 34.80 151.14 34.95
  C 156.18 36.04 153.63 41.94 152.30 44.77
  C 152.12 45.14 152.46 45.55 152.86 45.46
  C 159.90 43.89 167.84 41.36 173.91 37.09
  C 177.49 34.57 188.05 28.63 189.83 36.33
  C 190.04 37.21 189.72 38.69 188.88 40.78
  C 188.76 41.08 188.42 41.24 188.10 41.14
  C 186.28 40.55 185.55 39.48 185.94 37.75
  C 186.01 37.44 186.03 37.23 186.02 37.13
  C 185.98 36.82 185.68 36.63 185.39 36.72
  C 179.52 38.65 174.84 42.19 171.34 47.34
  C 170.60 48.43 170.18 49.56 170.09 50.75
  C 170.04 51.37 170.57 51.89 171.19 51.82
  C 173.00 51.62 174.80 51.22 176.60 50.62
  C 187.72 46.89 198.02 43.02 207.50 39.01
  C 207.63 38.96 207.74 38.89 207.84 38.80
  L 214.58 33.04
  C 215.79 32.01 217.65 32.42 218.31 33.87
  L 218.54 34.38
  C 219.04 35.47 218.64 36.76 217.62 37.37
  C 213.73 39.69 210.57 43.08 208.12 47.55
  C 208.00 47.76 208.18 48.02 208.42 47.99
  C 216.39 46.84 225.41 43.95 232.08 39.09
  C 232.35 38.89 232.52 38.58 232.55 38.24
  C 232.95 33.14 241.86 27.01 246.24 23.99
  C 248.99 22.10 252.42 21.38 252.95 25.98
  C 253.06 26.89 252.26 27.66 251.35 27.51
  C 251.27 27.50 251.15 27.47 250.99 27.42
  C 250.56 27.30 250.09 27.36 249.71 27.60
  C 243.84 31.23 239.69 34.75 237.24 38.18
  C 235.68 40.37 235.62 42.75 237.07 45.32
  C 237.26 45.64 237.66 45.76 237.99 45.60
  C 243.94 42.67 250.01 40.52 256.21 39.17
  C 256.66 39.06 257.08 38.86 257.44 38.56
  C 259.77 36.62 262.42 34.99 265.39 33.68
  C 271.08 31.17 278.01 33.11 274.35 40.82
  C 274.22 41.10 273.91 41.23 273.62 41.14
  C 271.65 40.51 270.94 39.19 271.50 37.18
  C 271.59 36.86 271.29 36.58 270.98 36.68
  C 266.29 38.25 262.29 40.86 258.98 44.49
  C 257.46 46.16 256.33 48.21 255.58 50.65
  C 255.41 51.22 255.86 51.79 256.45 51.74
  C 258.45 51.58 260.78 51.04 263.44 50.13
  C 275.75 45.92 287.93 41.27 300.00 36.17
  Z
  M 234.3980 53.4034
  C 234.27 53.26 233.13 54.04 231.8408 55.1555
  C 230.56 56.27 229.62 57.29 229.7420 57.4366
  C 229.87 57.58 231.01 56.80 232.2992 55.6845
  C 233.58 54.57 234.52 53.55 234.3980 53.4034
  Z"
/>
</svg>
